X: 102
P: No. CII.
M: 6/8
L: 1/8
K: A
V: 1
|:\
c2c cBA | BcB BAG |\
|:\
cde efe | f2d Te2d |
cde efe | f2d e2d/c/ |\
d2d ced | cBc {d}cBA |\
cde d2c | BAB BAF |\
V: 2 clef=bass middle=d
|:\
z2z A3 | e3 A3 |\
a3 A3 | d3 d3 |\
cBA d2e | A3 A3 :|\
|:\
d3 A3 | a3 A3 |\
a3 A3 | d3 d3 |\
cBA d2c | A3 A3 :|

